brandFactory_export/3.Masa/Cuidado precaucion _3Masa.svg

<?xml version="1.0" encoding="UTF-8"?>
<svg width="24px" height="24px" viewBox="0 0 24 24" version="1.1" xmlns="http://www.w3.org/2000/svg" xmlns:xlink="http://www.w3.org/1999/xlink">
    <title>3.Masa/Cuidado precaucion _3Masa</title>
    <g id="Symbols" stroke="none" stroke-width="1" fill="none" fill-rule="evenodd">
        <g id="3.Masa/Cuidado-precaucion-_3Masa" fill="#5CB615" fill-rule="nonzero">
            <path d="M11.8084034,18.6957983 C11.3445378,18.6957983 10.9680672,18.3193277 10.9680672,17.8521008 C10.9680672,17.3882353 11.3445378,17.0084034 11.8084034,17.0084034 C12.2722689,17.0084034 12.6487395,17.3848739 12.6487395,17.8521008 C12.6487395,18.3193277 12.2722689,18.6957983 11.8084034,18.6957983 Z M11.0689076,5.06890756 C11.0689076,4.66218487 11.3983193,4.32941176 11.8084034,4.32941176 C12.2184874,4.32941176 12.5478992,4.65882353 12.5478992,5.06890756 L12.5478992,15.2672269 C12.5478992,15.6739496 12.2184874,16.0067227 11.8084034,16.0067227 C11.3983193,16.0067227 11.0689076,15.6773109 11.0689076,15.2672269 L11.0689076,5.06890756 Z M12.3058824,0.0134453782 C12.0302521,0.00672268908 11.7109244,0 11.405042,0 L11.1865546,0 C8.81344538,0.0201680672 0,0.833613445 0,11.7714286 C0,22.7260504 8.89747899,23.5865546 11.2705882,23.6201681 C11.3915966,23.6235294 11.5159664,23.6235294 11.6403361,23.6235294 C11.8890756,23.6235294 12.1378151,23.6201681 12.3529412,23.6168067 C14.6084034,23.5764706 23.6235294,22.7294118 23.6235294,11.8420168 C23.6235294,0.981512605 14.6184874,0.0672268908 12.3058824,0.0134453782 Z" id="Cuidado-precaucion-_3Masa"></path>
        </g>
    </g>
</svg>

<svg width="24" height="24" viewBox="0 0 24 24" xmlns="http://www.w3.org/2000/svg"><path d="M11.808 18.696a.844.844 0 010-1.687c.464 0 .84.376.84.843a.841.841 0 01-.84.844zm-.74-13.627a.74.74 0 011.48 0v10.198a.74.74 0 01-1.48 0V5.07zM12.307.013A37.695 37.695 0 0011.405 0h-.218C8.813.02 0 .834 0 11.771c0 10.955 8.897 11.816 11.27 11.85.122.003.246.003.37.003.25 0 .498-.004.713-.007 2.255-.04 11.27-.888 11.27-11.775C23.624.982 14.619.067 12.307.013z" fill="#5CB615" fill-rule="nonzero"/></svg>
